src/main/resources/icons/FlexIcons/images/flex/flash_builder.svg

<svg xmlns="http://www.w3.org/2000/svg" width="16" height="16" viewBox="0 0 16 16"><rect id="frame" width="16" height="16" fill="none"/><g fill="#9AA7B0" fill-opacity=".8" fill-rule="evenodd"><path d="M4.5 9v6H2V1h9v2.5H4.5v3H8V9H4.5z"/><path d="M9.008 15V6.6h3.9c.96 0 1.716.264 2.196.744.384.384.576.852.576 1.428v.024c0 .948-.504 1.476-1.104 1.812.972.372 1.472.936 1.472 2.064v.024c0 1.536-1.148 2.304-3.044 2.304H9.008zm4.836-5.892v-.024c0-.552-.432-.864-1.212-.864h-1.824v1.776h1.704c.816 0 1.332-.264 1.332-.888zm.368 3.336c0-.564-.32-.912-1.268-.912h-2.136v1.848h2.196c.816 0 1.208-.288 1.208-.912v-.024z"/></g></svg>

<svg xmlns="http://www.w3.org/2000/svg" width="16" height="16" viewBox="0 0 16 16">
  <g fill="none" fill-opacity=".8" fill-rule="evenodd">
    <path fill="#9AA7B0" d="M4.5,9 L4.5,15 L2,15 L2,1 L4.5,1 L11,1 L11,3.5 L4.5,3.5 L4.5,6.5 L8,6.5 L8,9 L4.5,9 Z"/>
    <path fill="#9AA7B0" d="M9.008,15 L9.008,6.6 L12.908,6.6 C13.868,6.6 14.624,6.864 15.104,7.344 C15.488,7.728 15.68,8.196 15.68,8.772 L15.68,8.796 C15.68,9.744 15.176,10.272 14.576,10.608 C15.548,10.98 16.048,11.544 16.048,12.672 L16.048,12.696 C16.048,14.232 14.9,15 13.004,15 L9.008,15 Z M13.844,9.108 L13.844,9.084 C13.844,8.532 13.412,8.22 12.632,8.22 L10.808,8.22 L10.808,9.996 L12.512,9.996 C13.328,9.996 13.844,9.732 13.844,9.108 Z M14.212,12.444 C14.212,11.88 13.892,11.532 12.944,11.532 L10.808,11.532 L10.808,13.38 L13.004,13.38 C13.82,13.38 14.212,13.092 14.212,12.468 L14.212,12.444 Z"/>
  </g>
</svg>
